img/svg/icon_change.svg

<svg width="20" height="20" viewBox="0 0 20 20" fill="none" xmlns="http://www.w3.org/2000/svg">
<path fill-rule="evenodd" clip-rule="evenodd" d="M18.1463 0.538733L19.776 2.3383C20.0747 2.63405 20.0747 3.11799 19.776 3.41373L18.1741 4.99999L15.4583 2.12499L17.0602 0.538733C17.3589 0.242989 17.8476 0.242989 18.1463 0.538733ZM1.92028 18.1432H16.0797V9.56249L18 7.56249V18.4114C18 19.2985 17.2614 20 16.354 20H1.64596C0.73857 20 0 19.2985 0 18.4114V4.58859C0 3.72208 0.73857 2.99999 1.64596 2.99999H12.1125L10.1923 4.87742H1.92028V18.1432ZM14.5841 2.99999L9.14005 8.63388L11.9379 11.5221L17.382 5.88818L14.5841 2.99999ZM6.97303 10.8146C6.86444 10.9133 6.81015 11.012 6.75585 11.1601L6.02288 14.1469C5.88715 14.6406 6.3758 15.0849 6.94588 14.9861L9.72409 13.8245C9.85982 13.7998 9.99556 13.7258 10.1041 13.6271L11 12.8125L7.86889 9.99999L6.97303 10.8146Z" fill="#A7B6CB"/>
</svg>

<svg width="20" height="20" fill="none" xmlns="http://www.w3.org/2000/svg"><path fill-rule="evenodd" clip-rule="evenodd" d="M18.146.539l1.63 1.8a.757.757 0 010 1.075L18.174 5l-2.716-2.875L17.06.539a.776.776 0 011.086 0zM1.92 18.143h14.16v-8.58l1.92-2V18.41c0 .887-.739 1.589-1.646 1.589H1.646C.739 20 0 19.299 0 18.411V4.59C0 3.722.739 3 1.646 3h10.466l-1.92 1.877H1.92v13.266zM14.584 3L9.14 8.634l2.798 2.888 5.444-5.634L14.584 3zm-7.611 7.815a.781.781 0 00-.217.345l-.733 2.987c-.136.494.353.938.923.84l2.778-1.162a.796.796 0 00.38-.198l.896-.815L7.869 10l-.896.815z" fill="#A7B6CB"/></svg>
